src/icons/svg/log.svg

<?xml version="1.0" encoding="UTF-8"?>
<svg width="40px" height="48px" viewBox="0 0 40 48" version="1.1" xmlns="http://www.w3.org/2000/svg"
>
    <path d="M0,4.32432432 C0,1.93606595 1.93606595,0 4.32432432,0 L34.5945946,0 C36.982853,0 38.9189189,1.93606595 38.9189189,4.32432432 L38.9189189,23.7837838 C38.9189189,24.977913 37.9508859,25.9459459 36.7567568,25.9459459 C35.5626276,25.9459459 34.5945946,24.977913 34.5945946,23.7837838 L34.5945946,4.32432432 L4.32432432,4.32432432 L4.32432432,43.2432432 L19.4594595,43.2432432 C20.6535886,43.2432432 21.6216216,44.2112762 21.6216216,45.4054054 C21.6216216,46.5995346 20.6535886,47.5675676 19.4594595,47.5675676 L4.32432432,47.5675676 C1.93606595,47.5675676 0,45.6315016 0,43.2432432 L0,4.32432432 Z"
          id="路径" fill="#646A73"></path>
    <path d="M0,4.32432432 C0,1.93606595 1.93606595,0 4.32432432,0 L34.5945946,0 C36.982853,0 38.9189189,1.93606595 38.9189189,4.32432432 L38.9189189,23.7837838 C38.9189189,24.977913 37.9508859,25.9459459 36.7567568,25.9459459 C35.5626276,25.9459459 34.5945946,24.977913 34.5945946,23.7837838 L34.5945946,4.32432432 L4.32432432,4.32432432 L4.32432432,43.2432432 L19.4594595,43.2432432 C20.6535886,43.2432432 21.6216216,44.2112762 21.6216216,45.4054054 C21.6216216,46.5995346 20.6535886,47.5675676 19.4594595,47.5675676 L4.32432432,47.5675676 C1.93606595,47.5675676 0,45.6315016 0,43.2432432 L0,4.32432432 Z"
          id="路径" fill-opacity="0.2" fill="#000000"></path>
    <path d="M8.64864865,15.1351351 C8.64864865,13.9410059 9.61668162,12.972973 10.8108108,12.972973 L28.1081081,12.972973 C29.3022373,12.972973 30.2702703,13.9410059 30.2702703,15.1351351 C30.2702703,16.3292643 29.3022373,17.2972973 28.1081081,17.2972973 L10.8108108,17.2972973 C9.61668162,17.2972973 8.64864865,16.3292643 8.64864865,15.1351351 Z"
          id="路径" fill="#646A73"></path>
    <path d="M8.64864865,15.1351351 C8.64864865,13.9410059 9.61668162,12.972973 10.8108108,12.972973 L28.1081081,12.972973 C29.3022373,12.972973 30.2702703,13.9410059 30.2702703,15.1351351 C30.2702703,16.3292643 29.3022373,17.2972973 28.1081081,17.2972973 L10.8108108,17.2972973 C9.61668162,17.2972973 8.64864865,16.3292643 8.64864865,15.1351351 Z"
          id="路径" fill-opacity="0.2" fill="#000000"></path>
    <path d="M8.64864865,23.7837838 C8.64864865,22.5896546 9.61668162,21.6216216 10.8108108,21.6216216 L19.4594595,21.6216216 C20.6535886,21.6216216 21.6216216,22.5896546 21.6216216,23.7837838 C21.6216216,24.977913 20.6535886,25.9459459 19.4594595,25.9459459 L10.8108108,25.9459459 C9.61668162,25.9459459 8.64864865,24.977913 8.64864865,23.7837838 Z"
          id="路径" fill="#646A73"></path>
    <path d="M8.64864865,23.7837838 C8.64864865,22.5896546 9.61668162,21.6216216 10.8108108,21.6216216 L19.4594595,21.6216216 C20.6535886,21.6216216 21.6216216,22.5896546 21.6216216,23.7837838 C21.6216216,24.977913 20.6535886,25.9459459 19.4594595,25.9459459 L10.8108108,25.9459459 C9.61668162,25.9459459 8.64864865,24.977913 8.64864865,23.7837838 Z"
          id="路径" fill-opacity="0.2" fill="#000000"></path>
    <path d="M30.8994595,26.0389189 L30.2702703,28.1081081 L29.6410811,26.0389189 C30.0512633,25.9141565 30.4892772,25.9141565 30.8994595,26.0389189 Z M30.2702703,45.4054054 C29.1459459,47.2518919 29.1459459,47.2518919 29.1437838,47.2498704 L29.1416216,47.2498704 L29.1372973,47.2475676 L29.1264865,47.2410811 L29.0962162,47.2216216 C28.9653196,47.1379846 28.8362793,47.0514772 28.7091892,46.9621622 C28.3715297,46.7264101 28.0426587,46.4783144 27.7232432,46.2183784 C26.6595791,45.3505233 25.6853632,44.3784803 24.8151351,43.3167568 C22.7005405,40.7394595 20.5405405,36.8108108 20.5405405,31.5675676 C20.5405405,30.9016216 20.8086486,30.4 21.0075676,30.1102703 C21.212973,29.8140541 21.4508108,29.587027 21.6389189,29.4313514 C22.0151351,29.1156757 22.4605405,28.8475676 22.867027,28.6313514 C23.6994595,28.1902703 24.7481081,27.7535135 25.7167568,27.3837838 C26.9784837,26.905984 28.2547774,26.4675735 29.5437838,26.0691892 L29.612973,26.0475676 L29.6389189,26.0389189 L30.2702703,28.1081081 L30.8994595,26.0389189 L30.9275676,26.0475676 L30.9945946,26.0691892 L31.2454054,26.147027 C32.4488839,26.5276874 33.6420931,26.9400836 34.8237838,27.3837838 C35.7945946,27.7535135 36.8410811,28.1902703 37.6735135,28.6335135 C38.0778378,28.8497297 38.5254054,29.1156757 38.9016216,29.4313514 C39.0897297,29.587027 39.3275676,29.8140541 39.5308108,30.1102703 C39.7318919,30.3978378 40,30.9016216 40,31.5675676 C40,36.8108108 37.84,40.7394595 35.7254054,43.3167568 C34.8551773,44.3784803 33.8809614,45.3505233 32.8172973,46.2183784 C32.3768795,46.5757694 31.9186343,46.9106132 31.4443243,47.2216216 L31.4140541,47.2410811 L31.4032432,47.2475676 L31.3989189,47.2475676 L31.3989189,47.2498704 C31.3967568,47.2498704 31.3945946,47.2498704 30.2702703,45.4054054 L30.2702703,45.4054054 Z M30.2702703,45.4054054 L29.1437838,47.2497297 C29.8356757,47.6713514 30.707027,47.6713514 31.3967568,47.2497297 L30.2702703,45.4054054 Z M30.2702703,42.7135135 C29.5018456,42.0664287 28.7947094,41.3498834 28.1578378,40.572973 C26.6162162,38.6918919 25.1091892,35.9956757 24.892973,32.4540541 L24.9037838,32.4475676 C25.4897297,32.1340541 26.3351351,31.7772973 27.2562162,31.4248649 C28.2515092,31.0482158 29.2565418,30.6978243 30.2702703,30.3740541 C31.282969,30.7009 32.2879257,31.0512651 33.2843243,31.4248649 C34.2054054,31.7772973 35.0508108,32.1340541 35.6389189,32.4475676 L35.6475676,32.4540541 C35.4313514,35.9956757 33.9264865,38.6940541 32.3827027,40.5751351 C31.6259459,41.4983784 30.8691892,42.2118919 30.2702703,42.7135135 L30.2702703,42.7135135 Z"
          id="形状" fill="#646A73"></path>
    <path d="M30.8994595,26.0389189 L30.2702703,28.1081081 L29.6410811,26.0389189 C30.0512633,25.9141565 30.4892772,25.9141565 30.8994595,26.0389189 Z M30.2702703,45.4054054 C29.1459459,47.2518919 29.1459459,47.2518919 29.1437838,47.2498704 L29.1416216,47.2498704 L29.1372973,47.2475676 L29.1264865,47.2410811 L29.0962162,47.2216216 C28.9653196,47.1379846 28.8362793,47.0514772 28.7091892,46.9621622 C28.3715297,46.7264101 28.0426587,46.4783144 27.7232432,46.2183784 C26.6595791,45.3505233 25.6853632,44.3784803 24.8151351,43.3167568 C22.7005405,40.7394595 20.5405405,36.8108108 20.5405405,31.5675676 C20.5405405,30.9016216 20.8086486,30.4 21.0075676,30.1102703 C21.212973,29.8140541 21.4508108,29.587027 21.6389189,29.4313514 C22.0151351,29.1156757 22.4605405,28.8475676 22.867027,28.6313514 C23.6994595,28.1902703 24.7481081,27.7535135 25.7167568,27.3837838 C26.9784837,26.905984 28.2547774,26.4675735 29.5437838,26.0691892 L29.612973,26.0475676 L29.6389189,26.0389189 L30.2702703,28.1081081 L30.8994595,26.0389189 L30.9275676,26.0475676 L30.9945946,26.0691892 L31.2454054,26.147027 C32.4488839,26.5276874 33.6420931,26.9400836 34.8237838,27.3837838 C35.7945946,27.7535135 36.8410811,28.1902703 37.6735135,28.6335135 C38.0778378,28.8497297 38.5254054,29.1156757 38.9016216,29.4313514 C39.0897297,29.587027 39.3275676,29.8140541 39.5308108,30.1102703 C39.7318919,30.3978378 40,30.9016216 40,31.5675676 C40,36.8108108 37.84,40.7394595 35.7254054,43.3167568 C34.8551773,44.3784803 33.8809614,45.3505233 32.8172973,46.2183784 C32.3768795,46.5757694 31.9186343,46.9106132 31.4443243,47.2216216 L31.4140541,47.2410811 L31.4032432,47.2475676 L31.3989189,47.2475676 L31.3989189,47.2498704 C31.3967568,47.2498704 31.3945946,47.2498704 30.2702703,45.4054054 L30.2702703,45.4054054 Z M30.2702703,45.4054054 L29.1437838,47.2497297 C29.8356757,47.6713514 30.707027,47.6713514 31.3967568,47.2497297 L30.2702703,45.4054054 Z M30.2702703,42.7135135 C29.5018456,42.0664287 28.7947094,41.3498834 28.1578378,40.572973 C26.6162162,38.6918919 25.1091892,35.9956757 24.892973,32.4540541 L24.9037838,32.4475676 C25.4897297,32.1340541 26.3351351,31.7772973 27.2562162,31.4248649 C28.2515092,31.0482158 29.2565418,30.6978243 30.2702703,30.3740541 C31.282969,30.7009 32.2879257,31.0512651 33.2843243,31.4248649 C34.2054054,31.7772973 35.0508108,32.1340541 35.6389189,32.4475676 L35.6475676,32.4540541 C35.4313514,35.9956757 33.9264865,38.6940541 32.3827027,40.5751351 C31.6259459,41.4983784 30.8691892,42.2118919 30.2702703,42.7135135 L30.2702703,42.7135135 Z"
          id="形状" fill-opacity="0.2" fill="#000000"></path>
</svg>

<svg width="40" height="48" xmlns="http://www.w3.org/2000/svg"><path d="M0 4.324A4.324 4.324 0 0 1 4.324 0h30.27a4.324 4.324 0 0 1 4.325 4.324v19.46a2.162 2.162 0 0 1-4.324 0V4.324H4.325v38.92h15.134a2.162 2.162 0 0 1 0 4.324H4.324A4.324 4.324 0 0 1 0 43.243V4.324z" fill="currentColor"/><path d="M0 4.324A4.324 4.324 0 0 1 4.324 0h30.27a4.324 4.324 0 0 1 4.325 4.324v19.46a2.162 2.162 0 0 1-4.324 0V4.324H4.325v38.92h15.134a2.162 2.162 0 0 1 0 4.324H4.324A4.324 4.324 0 0 1 0 43.243V4.324z" fill-opacity=".2" fill="currentColor"/><path d="M8.649 15.135c0-1.194.968-2.162 2.162-2.162h17.297a2.162 2.162 0 1 1 0 4.324H10.811a2.162 2.162 0 0 1-2.162-2.162z" fill="currentColor"/><path d="M8.649 15.135c0-1.194.968-2.162 2.162-2.162h17.297a2.162 2.162 0 1 1 0 4.324H10.811a2.162 2.162 0 0 1-2.162-2.162z" fill-opacity=".2" fill="currentColor"/><path d="M8.649 23.784c0-1.194.968-2.162 2.162-2.162h8.648a2.162 2.162 0 0 1 0 4.324h-8.648a2.162 2.162 0 0 1-2.162-2.162z" fill="currentColor"/><path d="M8.649 23.784c0-1.194.968-2.162 2.162-2.162h8.648a2.162 2.162 0 0 1 0 4.324h-8.648a2.162 2.162 0 0 1-2.162-2.162z" fill-opacity=".2" fill="currentColor"/><path d="M30.9 26.039l-.63 2.07-.629-2.07c.41-.125.848-.125 1.258 0zm-.63 19.366c-1.124 1.847-1.124 1.847-1.126 1.845h-.002l-.005-.002-.01-.007-.03-.02c-.132-.083-.26-.17-.388-.259a16.79 16.79 0 0 1-.986-.744 20.592 20.592 0 0 1-2.908-2.901c-2.114-2.578-4.274-6.506-4.274-11.75 0-.665.268-1.167.467-1.457.205-.296.443-.523.63-.679a7.188 7.188 0 0 1 1.229-.8c.832-.44 1.881-.877 2.85-1.247a65.016 65.016 0 0 1 3.827-1.315l.069-.021.026-.01.631 2.07.63-2.07.028.01.067.021.25.078a71.65 71.65 0 0 1 3.579 1.237c.97.37 2.017.806 2.85 1.25.404.216.851.482 1.228.797.188.156.426.383.629.68.2.287.469.79.469 1.457 0 5.243-2.16 9.171-4.275 11.749a20.592 20.592 0 0 1-2.908 2.901c-.44.358-.898.693-1.373 1.004l-.03.02-.01.006h-.005v.002c-.002 0-.004 0-1.129-1.845zm0 0l-1.126 1.845a2.165 2.165 0 0 0 2.253 0l-1.127-1.845zm0-2.691a16.346 16.346 0 0 1-2.112-2.141c-1.542-1.881-3.049-4.577-3.265-8.119l.01-.006c.587-.314 1.432-.67 2.353-1.023.996-.377 2-.727 3.014-1.05 1.013.326 2.018.676 3.014 1.05.921.352 1.767.71 2.355 1.023l.009.006c-.217 3.542-1.722 6.24-3.265 8.121a16.23 16.23 0 0 1-2.113 2.139z" fill="currentColor"/><path d="M30.9 26.039l-.63 2.07-.629-2.07c.41-.125.848-.125 1.258 0zm-.63 19.366c-1.124 1.847-1.124 1.847-1.126 1.845h-.002l-.005-.002-.01-.007-.03-.02c-.132-.083-.26-.17-.388-.259a16.79 16.79 0 0 1-.986-.744 20.592 20.592 0 0 1-2.908-2.901c-2.114-2.578-4.274-6.506-4.274-11.75 0-.665.268-1.167.467-1.457.205-.296.443-.523.63-.679a7.188 7.188 0 0 1 1.229-.8c.832-.44 1.881-.877 2.85-1.247a65.016 65.016 0 0 1 3.827-1.315l.069-.021.026-.01.631 2.07.63-2.07.028.01.067.021.25.078a71.65 71.65 0 0 1 3.579 1.237c.97.37 2.017.806 2.85 1.25.404.216.851.482 1.228.797.188.156.426.383.629.68.2.287.469.79.469 1.457 0 5.243-2.16 9.171-4.275 11.749a20.592 20.592 0 0 1-2.908 2.901c-.44.358-.898.693-1.373 1.004l-.03.02-.01.006h-.005v.002c-.002 0-.004 0-1.129-1.845zm0 0l-1.126 1.845a2.165 2.165 0 0 0 2.253 0l-1.127-1.845zm0-2.691a16.346 16.346 0 0 1-2.112-2.141c-1.542-1.881-3.049-4.577-3.265-8.119l.01-.006c.587-.314 1.432-.67 2.353-1.023.996-.377 2-.727 3.014-1.05 1.013.326 2.018.676 3.014 1.05.921.352 1.767.71 2.355 1.023l.009.006c-.217 3.542-1.722 6.24-3.265 8.121a16.23 16.23 0 0 1-2.113 2.139z" fill-opacity=".2" fill="currentColor"/></svg>
